X:1
T:Nordisk Liv
T:Nordisk Liv
T:Carl Arnold
C:Carl Arnold
%%score [ 1 2 3 4 ]
L:1/8
Q:1/4=124
M:6/8
K:D
V:1 treble-8 nm="T1"
V:2 treble-8 nm="T2"
V:3 bass nm="B1"
V:4 bass nm="B2"
V:1
"^Allegro moderato"!mf! B3 B3 | B2 d f2 d | B6 | c3 c3 |"^poco rit." d2 d (f>e) d | c6 | f6 | %7
w: Nor- dens|Höst med trau- rig|Hu|har i|Hjem- met alt _ sit|Sta-|de,|
"^a tempo" F3 F3 | ^A2!<(! c e2!<)! f | g6 |!p! g3 g3 |"^poco rit." g2 f (e>f) d | f6 | e6 | %14
w: dybt i|Skov gaar Dö- dens|Gru,|gu- le|fal- de Bir- * kens|Bla-|de.|
"^a tempo" z6 |!mf! e2 d c2 B |!<(! A3 c3!<)! | e3- e z2 |!mf! e2 d c2 B |!<(! ^A2 B (c2 d)!<)! | %20
w: |E- ne Gra- nens|Naal er|grön, _|ak, her er kun|Smer- ten skjön, _|
!f! e3!<(! g3!<)! | f3 d3 | (B2 c)!>(! (d2 e)!>)! | !fermata!f6 || %24
w: ak, her|er kun|Smer- * ten _|skjön.|
[K:B][M:4/4][Q:1/4=84]"^Poco meno Allegro"!pp! d2 z d e2 d2 | c2 ^^c2 d3 B | %26
w: Dog, se hist ved|Træ- ets Fod en|
 B2!<(! B2 e2!<)!!>(! d2!>)! | d4 c2 z2 | c3 c f3 c | c2 c2 !fermata!f2"^rit. e dolcissimo" d2 | %30
w: sil- dig Blomst ud-|slaar _|end sin Kalk med|stil- le Mod og|
 f4 d4 |[Q:1/4=61]"^Adagio" (B4 d2) c2 | B6 z2 |] %33
w: dröm- mer|södt _ om|Vaar.|
V:2
!mf! B3 B3 | B2 d f2 d | B6 | ^A3 A3 | B2 B (d>c) B | ^A6 | ^A6 | F3 F3 | ^A2!<(! c e2!<)! f | g6 | %10
w: Nor- dens|Höst med trau- rig|Hu|har i|Hjem- met alt _ sit|Sta-|de,|dybt i|Skov gaar Dö- dens|Gru,|
!p! B3 _B3 | A2 A B2 B | d6 | c6 | z6 |!mf! G2 F E2 D |!<(! C3 E3!<)! | G3- G z2 |!mf! G2 F E2 D | %19
w: gu- le|fal- de Bir- kens|Bla-|de.||E- ne Gra- nens|Naal er|grön, _|ak, her er kun|
!<(! F2 ^G (^A2 B)!<)! |!f! c3!<(! e3!<)! | d3 B3 | B3!>(! B3!>)! | !fermata!c6 || %24
w: Smer- ten skjön, _|ak, her|er kun|Smer- ten|skjön.|
[K:B][M:4/4]!pp! B2 z B B2 B2 | B2 B2 B3 =A | G2!<(! G2 G2!<)!!>(! B2!>)! | B4 A2 z2 | A3 A B3 A | %29
w: Dog, se hist ved|Træ- ets Fod en|sil- dig Blomst ud-|slaar _|end sin Kalk med|
 A2 A2 !fermata!B2 B2 | d4 B4 | (D4 F2) E2 | D6 z2 |] %33
w: stil- le Mod og|dröm- mer|södt _ om|Vaar.|
V:3
!mf! B,,3 B,,3 | B,,2 D, F,2 D, | B,,6 | F,3 F,3 | F,2 F, F,2 F, | F,6 | F,6 | F,,3 F,,3 | %8
w: Nor- dens|Höst med trau- rig|Hu|har i|Hjem- met alt sit|Sta-|de,|dybt i|
 ^A,,2!<(! C, E,2!<)! F, | G,6 |!p! G,3 G,3 | E,2 F, G,2 B, | A,6 | A,6 |!mf! A,3 A,3 | %15
w: Skov gaar Dö- dens|Gru,|gu- le|fal- de Bir- kens|Bla-|de.|E- ne|
 A,2 A, A,2 A, |!<(! A,6!<)! | ^A,3 A,3 |!mf! ^A,2 A, A,2 B, |!<(! F,3- F,3!<)! | %20
w: Gra- nenes Naal er|grön,|ak, her|er kun Smer- ten|skjön, _|
!f! F,3!<(! ^A,3!<)! | B,3 F,3 | G,3!>(! B,3!>)! | !fermata!^A,6 || %24
w: ak, her|er kun|Smer- ten|skjön.|
[K:B][M:4/4]!pp! F,2 z ^^F, G,2 ^F,2 | E,2 ^E,2 F,3 F, | G,2!<(! E,2 E,2!<)!!>(! (F,G,)!>)! | %27
w: Dog, se hist ved|Træ- ets Fod en|sil- dig Blomst ud- *|
 F,6 z2 | F,3 F, F,3 F, | F,2 F,2 !fermata!F,2 F,2 | F,4 F,4 | F,6 F,2 | F,6 z2 |] %33
w: slaar|end sin Kalk med|stil- le Mod og|dröm- mer|södt om|Vaar.|
V:4
!mf! B,,3 B,,3 | B,,2 D, F,2 D, | B,,6 | F,3 F,3 | B,,2 B,, B,,2 D, | F,6 | F,6 | F,,3 F,,3 | %8
w: Nor- dens|Höst med trau- rig|Hu|har i|Hjem- met alt sit|Sta-|de,|dybt i|
 ^A,,2!<(! C, E,2!<)! F, | G,6 |!p! E,3 D,3 | C,2 D, G,,2 ^G,, | A,,6 | A,,6 |!mf! A,,3 A,,3 | %15
w: Skov gaar Dö- dens|Gru,|gu- le|fal- de Bir- kens|Bla-|de.|E- ne|
 A,,2 A,, A,,2 A,, |!<(! A,,6!<)! | ^A,,3 A,,3 |!mf! ^A,,2 A,, A,,2 B,, |!<(! F,,3- F,,3!<)! | %20
w: Gra- nenes Naal er|grön,|ak, her|er kun Smer- ten|skjön, _|
!f! F,3!<(! F,,3!<)! | B,,3 D,3 | G,3!>(! G,3!>)! | !fermata!F,6 || %24
w: ak, her|er kun|Smer- ten|skjön.|
[K:B][M:4/4]!pp! B,,2 z B,, B,,2 B,,2 | B,,2 B,,2 B,,3 D, | E,2!<(! E,2 C,2!<)!!>(! (D,E,)!>)! | %27
w: Dog, se hist ved|Træ- ets Fod en|sil- dig Blomst ud- *|
 F,6 z2 | E,3 E, D,3 E, | E,2 E,2 !fermata!D,2 B,,2 | B,,4 B,,4 | F,,6 F,,2 | B,,6 z2 |] %33
w: slaar|end sin Kalk med|stil- le Mod og|dröm- mer|södt om|Vaar.|

